X:1
R:Kadrilj
K:D
M:2/4
L:1/16
dc | .d2 A2 (AB)AG | F2D2 D2d2 | B2Bd c2cd | (ed)cB A2dc |
     .d2 A2 (AB)AG | F2D2 D2d2 | B2Bd c2ce | .d2.A2 .d4  |

